X: 43248
T: Wolfshead, The
R: jig
M: 6/8
K: Eminor
|:E2B BBB|cBA BAG|E2B BBB|cBA B3|
E2B BBB|cBA BAG|AGF GFE|FED E3:|
|:E2E A,B,D|E2E A,B,D|EDE FEF|GFG BAG|
E2E A,B,D|E2E A,B,D|EDE FEF|BAG E3:|

